X:6
T:I kvartslage (ringlender)
R:reinländer
Z:2001 Brian Wilson <baab@mediaone.net>
M:4/4
L:1/8
K:A
||: "A"a2c'2 "A/E"e2a2 | "A"cdef "A/C#"e4 | "E"fedc "E/B"d2B2 | "E"edcB "A"c2 (3efg
|  "A"a2c'2 "A/E"e2a2 | "A"cdef "A/C#"e4 | "E"Begb "E/B"gefg
|1 "A"a2"E"ag "A"a2 (3efg :|2  "A"a2"E"ag "A"a4 |
|: "A"e2 cd "A/E"cAce | "A"a2cd "A/C#"e4 | "D"f2d2 "D/F#"dcde | "D/A"d2cB "A/F#"c4
| "E"edcd "E/B"B2 (3efg | "A"a2cd "A/C#"e4 | "E"eagb "E/B"gefg
|1  "A"a2"E"ag "A"a4 :|2 "A"a2"E"ag "A"a2 (3efg ||
